images_sukapura_svg/cmd/32/editstyle.svg

<svg viewBox="0 0 32 32" xmlns="http://www.w3.org/2000/svg"><path d="m10.794922 3-6.2558595 16.849609.0039063.003907-1.5429688 4.146484h2.234375c.2429596 0 .4501253-.06852.6191406-.207031.1795787-.138508.2999007-.299341.3632813-.480469l1.7597656-5.033203h8.5859375l1.759766 5.033203c.063381.181128.183704.341961.363281.480469.169016.138511.37618.207031.619141.207031h2.234374l-1.542968-4.146484.003906-.003907-6.255859-16.849609h-.015625-2.917969zm1.474609 2.7480469c.09507.394216.19515.7606187.300781 1.1015625.081317.2624551.16296.4785158.244141.6914062.024271.0688219.050576.1590645.074219.2226563l2.945312 8.4375001h-7.1289059l2.9453129-8.4375001c.023643-.0635918.049948-.1538344.074218-.2226563.081181-.2128904.162824-.4289511.244141-.6914062.105632-.3409438.205711-.7073465.300781-1.1015625z" fill="#69696e"/><g fill="#eac282" stroke-width=".857112" transform="matrix(1.1667513 0 0 1.1666667 2.664099 2.670651)"><path d="m11.437572 19.627857-1.09644 4.02504 3.951909-1.171525c1.653046-.339535-2.065034-3.99245-2.855469-2.853515z" fill="#a2a2a7" stroke="#848489"/><path d="m20.419922 11c-.189562 0-.378184.07172-.523438.216797l-1.673828 1.669922 2.847656 2.849609 1.710938-1.638672c.290506-.290127.290506-.756747 0-1.046875l-1.835938-1.833984c-.145254-.145064-.335828-.216797-.52539-.216797z" fill="#e68497" stroke="#b6496c"/><path d="m19.288937 13.155429 1.143664-1.12071 1.850278 1.787531" fill="none" stroke="#f398b3"/><path d="m17.603733 13.488055-5.652561 5.646711 2.855469 2.853515 5.633029-5.668195z" fill="#fc0" stroke="#c89e00"/><path d="m19.761836 15.247137-1.100691-1.177408-6.1837 6.223955 1.082595 1.146887z" fill="#ffe014"/></g></svg>

<?xml version="1.0" encoding="UTF-8" standalone="no"?>
<svg
   xmlns:dc="http://purl.org/dc/elements/1.1/"
   xmlns:cc="http://creativecommons.org/ns#"
   xmlns:rdf="http://www.w3.org/1999/02/22-rdf-syntax-ns#"
   xmlns:svg="http://www.w3.org/2000/svg"
   xmlns="http://www.w3.org/2000/svg"
   xmlns:sodipodi="http://sodipodi.sourceforge.net/DTD/sodipodi-0.dtd"
   xmlns:inkscape="http://www.inkscape.org/namespaces/inkscape"
   viewBox="0 0 32 32"
   version="1.1"
   id="svg29"
   sodipodi:docname="editstyle.svg"
   inkscape:version="0.92.3 (unknown)"
   inkscape:export-filename="/home/rizmut/Dokumen/Rizmut/Github/libreoffice-style-sukapura/images_sukapura/cmd/32/editstyle.png"
   inkscape:export-xdpi="96"
   inkscape:export-ydpi="96">
  <metadata
     id="metadata35">
    <rdf:RDF>
      <cc:Work
         rdf:about="">
        <dc:format>image/svg+xml</dc:format>
        <dc:type
           rdf:resource="http://purl.org/dc/dcmitype/StillImage" />
        <dc:title></dc:title>
      </cc:Work>
    </rdf:RDF>
  </metadata>
  <defs
     id="defs33" />
  <sodipodi:namedview
     pagecolor="#ffffff"
     bordercolor="#666666"
     borderopacity="1"
     objecttolerance="10"
     gridtolerance="10"
     guidetolerance="10"
     inkscape:pageopacity="0"
     inkscape:pageshadow="2"
     inkscape:window-width="1366"
     inkscape:window-height="699"
     id="namedview31"
     showgrid="false"
     inkscape:zoom="14.75"
     inkscape:cx="13.429894"
     inkscape:cy="12.111351"
     inkscape:window-x="0"
     inkscape:window-y="0"
     inkscape:window-maximized="1"
     inkscape:current-layer="svg29" />
  <filter
     id="a"
     color-interpolation-filters="sRGB"
     height="1.135959"
     width="1.153052"
     x="-.076526"
     y="-.067979">
    <feGaussianBlur
       stdDeviation=".44180839"
       id="feGaussianBlur2" />
  </filter>
  <radialGradient
     id="b"
     cx="55.498295"
     cy="20.746534"
     gradientTransform="matrix(1 0 0 .72181261 0 7.10169)"
     gradientUnits="userSpaceOnUse"
     r="10.03901">
    <stop
       offset="0"
       stop-color="#ffc765"
       id="stop5" />
    <stop
       offset="1"
       stop-color="#ffa914"
       id="stop7" />
  </radialGradient>
  <radialGradient
     id="c"
     cx="55.441967"
     cy="22.525862"
     gradientTransform="matrix(1.2258064 0 0 1.0478667 -12.519154 -1.07824)"
     gradientUnits="userSpaceOnUse"
     r="2.229184">
    <stop
       offset="0"
       stop-color="#ffe9c3"
       id="stop10" />
    <stop
       offset="1"
       stop-color="#ffe9c3"
       stop-opacity="0"
       id="stop12" />
  </radialGradient>
  <path
     d="M 10.794922 3 L 4.5390625 19.849609 L 4.5429688 19.853516 L 3 24 L 5.234375 24 C 5.4773346 24 5.6845003 23.93148 5.8535156 23.792969 C 6.0330943 23.654461 6.1534163 23.493628 6.2167969 23.3125 L 7.9765625 18.279297 L 16.5625 18.279297 L 18.322266 23.3125 C 18.385647 23.493628 18.50597 23.654461 18.685547 23.792969 C 18.854563 23.93148 19.061727 24 19.304688 24 L 21.539062 24 L 19.996094 19.853516 L 20 19.849609 L 13.744141 3 L 13.728516 3 L 10.810547 3 L 10.794922 3 z M 12.269531 5.7480469 C 12.364601 6.1422629 12.464681 6.5086656 12.570312 6.8496094 C 12.651629 7.1120645 12.733272 7.3281252 12.814453 7.5410156 C 12.838724 7.6098375 12.865029 7.7000801 12.888672 7.7636719 L 15.833984 16.201172 L 8.7050781 16.201172 L 11.650391 7.7636719 C 11.674034 7.7000801 11.700339 7.6098375 11.724609 7.5410156 C 11.80579 7.3281252 11.887433 7.1120645 11.96875 6.8496094 C 12.074382 6.5086656 12.174461 6.1422629 12.269531 5.7480469 z "
     id="path15"
     style="fill:#69696e;fill-opacity:1" />
  <g
     transform="matrix(1.1667513,0,0,1.1666667,2.6640987,2.6706512)"
     id="g12"
     style="fill:#eac282">
    <path
       d="m 11.437572,19.627857 -1.09644,4.02504 3.951909,-1.171525 c 1.653046,-0.339535 -2.065034,-3.99245 -2.855469,-2.853515 z"
       id="path8"
       style="fill:#a2a2a7;fill-opacity:1;stroke:#848489;stroke-width:0.85711175;stroke-miterlimit:4;stroke-dasharray:none;stroke-opacity:1"
       inkscape:connector-curvature="0"
       sodipodi:nodetypes="cccc" />
    <path
       d="m 20.419922,11 c -0.189562,0 -0.378184,0.07172 -0.523438,0.216797 l -1.673828,1.669922 2.847656,2.849609 1.710938,-1.638672 c 0.290506,-0.290127 0.290506,-0.756747 0,-1.046875 L 20.945312,11.216797 C 20.800058,11.071733 20.609484,11 20.419922,11 Z"
       id="path10"
       style="fill:#e68497;fill-opacity:1;stroke:#b6496c;stroke-width:0.85711175;stroke-miterlimit:4;stroke-dasharray:none;stroke-opacity:1"
       inkscape:connector-curvature="0" />
    <path
       inkscape:connector-curvature="0"
       style="fill:none;stroke:#f398b3;stroke-width:0.85711175"
       d="m 19.288937,13.155429 1.143664,-1.12071 1.850278,1.787531"
       id="path32"
       sodipodi:nodetypes="ccc" />
    <path
       style="fill:#ffcc00;fill-opacity:1;stroke:#c89e00;stroke-width:0.85711175;stroke-miterlimit:4;stroke-dasharray:none;stroke-opacity:1"
       id="path874"
       d="m 17.603733,13.488055 -5.652561,5.646711 2.855469,2.853515 5.633029,-5.668195 z"
       inkscape:connector-curvature="0"
       sodipodi:nodetypes="ccccc" />
    <path
       inkscape:connector-curvature="0"
       style="fill:#ffe014;stroke-width:0.85711175"
       d="m 19.761836,15.247137 -1.100691,-1.177408 -6.1837,6.223955 1.082595,1.146887 z"
       id="path14"
       sodipodi:nodetypes="ccccc" />
  </g>
</svg>
